X:40
T: Up in the Garret I Am
S: "Roche Collection of Traditional Irish Music" [II/27/262]
L: 1/8
M: 9/8
R: slip jig
K: D
c | d2B AFA AFA | d2B AGF E2c |
d2B AFA AFA | d2B AFD D2 :|
g | fed faf g2e | fed faf e2g |
fed faf g2e | d2B AFD D2 :|

